X:124
T:Hawk, The
R:hornpipe
C:James Hill (1811-1853), Northumberland
H:Originally in E
Z:id:hn-hornpipe-124
M:C|
L:1/8
K:D
(3ABc | d2fd Adfe | dfeg fagf | e2ge Begf | (3efe (3dcB ABcA |
d2fd Adfe | dfeg fagf | edef gABc | dAfe d2 :|
|: (3AAA | Aafd Agec | Afdc dcBA | BAcB dced | fegf e2ef |
gafg efde | caBg AfGe | cdef gABc | dAfe d2 :|

